src/assets/icons/icons-origin/Home.svg

<svg width="24" height="24" viewBox="0 0 24 24" xmlns="http://www.w3.org/2000/svg">
  <path d="M14 14H10V21H14V14Z" fill="currentColor" />
  <path d="M20.42 10.18L12.71 2.29999C12.617 2.20627 12.5064 2.13187 12.3846 2.0811C12.2627 2.03033 12.132 2.0042 12 2.0042C11.868 2.0042 11.7373 2.03033 11.6154 2.0811C11.4936 2.13187 11.383 2.20627 11.29 2.29999L3.57999 10.19C3.39343 10.3781 3.24609 10.6013 3.14652 10.8468C3.04695 11.0923 2.99715 11.3551 2.99999 11.62V20C2.99922 20.5119 3.19477 21.0046 3.54637 21.3767C3.89797 21.7488 4.37885 21.9718 4.88999 22H7.99999V13C7.99999 12.7348 8.10535 12.4804 8.29289 12.2929C8.48042 12.1054 8.73478 12 8.99999 12H15C15.2652 12 15.5196 12.1054 15.7071 12.2929C15.8946 12.4804 16 12.7348 16 13V22H19.11C19.6211 21.9718 20.102 21.7488 20.4536 21.3767C20.8052 21.0046 21.0008 20.5119 21 20V11.62C21.0008 11.0829 20.7928 10.5666 20.42 10.18Z" fill="currentColor" />
</svg>

<svg width="24" height="24" viewBox="0 0 24 24" xmlns="http://www.w3.org/2000/svg">
  <path d="M14 14h-4v7h4v-7Z" fill="currentColor"/>
  <path d="M20.42 10.18 12.71 2.3a1.001 1.001 0 0 0-1.42 0l-7.71 7.89A2 2 0 0 0 3 11.62V20a2 2 0 0 0 1.89 2H8v-9a1 1 0 0 1 1-1h6a1 1 0 0 1 1 1v9h3.11A2 2 0 0 0 21 20v-8.38a2.07 2.07 0 0 0-.58-1.44Z" fill="currentColor"/>
</svg>
